polaris-icons/icons/PersonalizedTextMajor.svg

<svg width="20" height="20" viewBox="0 0 20 20" fill="none" xmlns="http://www.w3.org/2000/svg">
<g clip-path="url(#clip0_2706_156156)">
<path d="M2.7072 9.707C2.8952 9.52 3.0002 9.266 3.0002 9V5C3.0002 4.73478 3.10556 4.48043 3.29309 4.29289C3.48063 4.10536 3.73498 4 4.0002 4C4.26542 4 4.51977 3.89464 4.70731 3.70711C4.89484 3.51957 5.0002 3.26522 5.0002 3C5.0002 2.73478 4.89484 2.48043 4.70731 2.29289C4.51977 2.10536 4.26542 2 4.0002 2C2.3462 2 1.0002 3.346 1.0002 5V8.586L0.293201 9.293C0.200255 9.38579 0.126518 9.49599 0.0762069 9.61731C0.0258962 9.73862 0 9.86867 0 10C0 10.1313 0.0258962 10.2614 0.0762069 10.3827C0.126518 10.504 0.200255 10.6142 0.293201 10.707L1.0002 11.414V15C1.0002 16.654 2.3462 18 4.0002 18C4.26542 18 4.51977 17.8946 4.70731 17.7071C4.89484 17.5196 5.0002 17.2652 5.0002 17C5.0002 16.7348 4.89484 16.4804 4.70731 16.2929C4.51977 16.1054 4.26542 16 4.0002 16C3.73498 16 3.48063 15.8946 3.29309 15.7071C3.10556 15.5196 3.0002 15.2652 3.0002 15V11C3.00039 10.8687 2.9746 10.7386 2.92432 10.6172C2.87403 10.4959 2.80024 10.3857 2.7072 10.293L2.4142 10L2.7072 9.707Z" fill="#616A75"/>
<path d="M19.9242 9.61731C19.8739 9.49599 19.8001 9.38579 19.7072 9.293L19.0002 8.586V5C19.0002 3.346 17.6542 2 16.0002 2C15.735 2 15.4806 2.10536 15.2931 2.29289C15.1056 2.48043 15.0002 2.73478 15.0002 3C15.0002 3.26522 15.1056 3.51957 15.2931 3.70711C15.4806 3.89464 15.735 4 16.0002 4C16.2654 4 16.5198 4.10536 16.7073 4.29289C16.8948 4.48043 17.0002 4.73478 17.0002 5V9C17 9.13134 17.0258 9.26143 17.0761 9.38276C17.1264 9.5041 17.2002 9.61429 17.2932 9.707L17.5862 10L17.2932 10.293C17.1052 10.48 17.0002 10.734 17.0002 11V15C17.0002 15.2652 16.8948 15.5196 16.7073 15.7071C16.5198 15.8946 16.2654 16 16.0002 16C15.735 16 15.4806 16.1054 15.2931 16.2929C15.1056 16.4804 15.0002 16.7348 15.0002 17C15.0002 17.2652 15.1056 17.5196 15.2931 17.7071C15.4806 17.8946 15.735 18 16.0002 18C17.6542 18 19.0002 16.654 19.0002 15V11.414L19.7072 10.707C19.8001 10.6142 19.8739 10.504 19.9242 10.3827C19.9745 10.2614 20.0004 10.1313 20.0004 10C20.0004 9.86867 19.9745 9.73862 19.9242 9.61731Z" fill="#616A75"/>
<path d="M10.0002 9C11.381 9 12.5002 7.88071 12.5002 6.5C12.5002 5.11929 11.381 4 10.0002 4C8.61953 4 7.50024 5.11929 7.50024 6.5C7.50024 7.88071 8.61953 9 10.0002 9Z" fill="#616A75"/>
<path d="M5.00024 13.375C5.00024 14.4105 5.83971 15.25 6.87524 15.25H13.1252C14.1608 15.25 15.0002 14.4105 15.0002 13.375C15.0002 12.3395 14.0627 10.25 10.0002 10.25C5.93774 10.25 5.00024 12.3395 5.00024 13.375Z" fill="#616A75"/>
</g>
<defs>
<clipPath id="clip0_2706_156156">
<rect width="20" height="20" fill="white"/>
</clipPath>
</defs>
</svg>

<svg xmlns="http://www.w3.org/2000/svg" width="20" height="20" fill="none"><g fill="#616A75" clip-path="url(#a)"><path d="M2.707 9.707A.996.996 0 0 0 3 9V5a1 1 0 0 1 1-1 1 1 0 0 0 0-2C2.346 2 1 3.346 1 5v3.586l-.707.707a.999.999 0 0 0 0 1.414l.707.707V15c0 1.654 1.346 3 3 3a1 1 0 0 0 0-2 1 1 0 0 1-1-1v-4a.997.997 0 0 0-.293-.707L2.414 10l.293-.293ZM19.924 9.617a1 1 0 0 0-.217-.324L19 8.586V5c0-1.654-1.346-3-3-3a1 1 0 1 0 0 2 1 1 0 0 1 1 1v4a.996.996 0 0 0 .293.707l.293.293-.293.293A.996.996 0 0 0 17 11v4a1 1 0 0 1-1 1 1 1 0 0 0 0 2c1.654 0 3-1.346 3-3v-3.586l.707-.707a1 1 0 0 0 .217-1.09ZM10 9a2.5 2.5 0 1 0 0-5 2.5 2.5 0 0 0 0 5Z"/><path d="M5 13.375c0 1.036.84 1.875 1.875 1.875h6.25c1.036 0 1.875-.84 1.875-1.875 0-1.036-.937-3.125-5-3.125-4.062 0-5 2.09-5 3.125Z"/></g><defs><clipPath id="a"><path fill="#fff" d="M0 0h20v20H0z"/></clipPath></defs></svg>
